X:24405
T:Marquis of Huntley's Highland Fling
C:George Jenkins (c. 1760-1806)
B: Scots Guard 
H:
O:Arranged by Kevin Fraser
O:Transcribed by Kevin Fraser
Z:Kevin Fraser
Q:1/4=132
K:HP
M:4/4
L:1/8
R:Strathspey
U: R = ///
U: r = //
U: V = !accent!
V:M gstem=up stem=down name="Melody" sname="Melody" 
V:H gstem=up stem=down name="Harmony" sname="Harmony"
V:C gstem=up stem=down name="C-Harmony" sname="C-Harmony"
V:S gstem=up stem=down dyn=up stafflines=1 clef=perc middle=G name="Snare" sname="Snare" sname="Snare"
V:B gstem=up stem=down clef=none dyn=up name="Bass" sname="Bass"
V:T gstem=up stem=down clef=none dyn=up name="Tenor" sname="Tenor"
V:BB gstem=up stem=down name="Brass Bass" sname="ABCD-C" transpose=-1  octave=-1 clef=bass
V:BC gstem=up stem=down name="Brass Chord" sname="ABCD-D" transpose=-1
V:BD gstem=up stem=down name="Brass Chord 2" sname="ABCD-B" transpose=-1
V:P gstem=up stem=down name="Piano" octave=-1
I:MIDI=program 110
%%MIDI gracedivider 4
%%score {M}
%%MIDI program 109 #bagpipes
%%MIDI vol 100
% %pagewidth 28cm % 11"
% %pageheigth 43cm  %17"
% %portrait
%%landscape
[V:M]|:    A/     | {Gdc}d2 {g}f>d {gf}g>e {g}f>d  | {gBd}B2 {gef}e>d {gcd}c>B {G}A>B | {Gdc}d2 {g}f>d {gf}g>e {g}f>d  | {gBd}B>e {g}c/B/{G}A {Gdc}d2 {gdG}d3/ :|
[V:M]|:    B/     | {g}A2 {GdGe}A>G {g}A>B {Gdc}d>e | {gf}g>e {g}f>d {gef}e>d {g}B<d    | {g}A2 {GdGe}A>G {g}A>B {Gdc}d>f | {ag}a>f {g}e>f {Gdc}d2 {gdG}d3/ :|
[V:M]|:    a/     | {fg}f2 {gfg}f2 {gf}g>e {g}f>d  | {gBd}B2 {gef}e>d {gcd}c>B {G}A>a | {fg}f2 {gfg}f2 {gf}g>e {g}f>d  | {gBd}B>e {g}c/B/{G}A {Gdc}d2 {gdG}d3/ :|
[V:M]|:    B/     | {g}A>{d}B {g}G>{d}B {g}A>B {Gdc}d>e | {gf}g>e {g}f>d {gef}e>d {g}B<d    | {g}A>{d}B {g}G>{d}B {g}A>B {Gdc}d>f  | {ag}a>f {g}e>f {Gdc}d2 {gdG}d3/ :|
W: The Third part is played once through as the introduction for Highland Dancers.

